X: 9047
T: Da Fiddler's O'er Fu'
R: reel
M: 4/4
K: Dmajor
Ad fd ed ef|af df a f2 d|1 Ad fd ed e2 -|ed BA FE D2:|2 af ed BA F2|A,B, DE F2 FE||
FA BA dA B2|dA BA d B2 A|FA BA dA B2|af ed FE D2|
FA BA dA B2|dA BA B3 A|af ed BA F2|A,B, DE F2 E2||

